X:2
T:Caf\'e Charbons Jig
C:Trad.
M:6/8
R:jig
K:G
DGB|d^cd BeB|d^cd BeB|cBc AFA|d^cd eGB|\
    d^cd BeB|d^cd BeB|cBc AFA|G3:|
GFG|A2A DFA|B2B GAB|cBc ABc|B2G GFG|\
    A2A DFA|B2B GAB|cBA GAF|G3:|

